src/next/cmd/sc_insertauthoritiesentry.svg

<svg enable-background="new 0 0 128 128" height="16" viewBox="0 0 16 16" width="16" xmlns="http://www.w3.org/2000/svg" xmlns:xlink="http://www.w3.org/1999/xlink"><linearGradient id="a" gradientTransform="matrix(1.8 0 0 1.4960829 -206.36154 -67.61099)" gradientUnits="userSpaceOnUse" x1="154.64529" x2="154.44292" y1="106.68593" y2="130.74823"><stop offset="0" stop-color="#4c78fd"/><stop offset="1" stop-color="#85a2fe"/></linearGradient><filter id="b"><feGaussianBlur stdDeviation="1.0394514"/></filter><filter id="c"><feGaussianBlur stdDeviation=".50063244"/></filter><radialGradient id="d" cx="153.327992" cy="156.18817" gradientUnits="userSpaceOnUse" r="139.5585"><stop offset="0" stop-color="#00537d"/><stop offset=".0151" stop-color="#186389"/><stop offset=".0558" stop-color="#558ca8"/><stop offset=".0964" stop-color="#89afc3"/><stop offset=".1357" stop-color="#b3ccd8"/><stop offset=".1737" stop-color="#d4e2e9"/><stop offset=".2099" stop-color="#ecf2f5"/><stop offset=".2435" stop-color="#fafcfd"/><stop offset=".2722" stop-color="#fff"/></radialGradient><radialGradient id="e" cx="125.30434" cy="133.25926" gradientTransform="matrix(.9787234 0 0 .9818182 1.361705 1.163636)" gradientUnits="userSpaceOnUse" r="139.55859"><stop offset="0" stop-color="#e3e4e4"/><stop offset=".11366145" stop-color="#ececed"/><stop offset=".20296688" stop-color="#ececec"/><stop offset=".2363" stop-color="#fafafa"/><stop offset=".2722" stop-color="#fff"/><stop offset=".5313" stop-color="#fafafa"/><stop offset=".8449" stop-color="#ebecec"/><stop offset="1" stop-color="#e1e2e3"/></radialGradient><linearGradient id="f"><stop offset="0" stop-color="#262626"/><stop offset="1" stop-color="#fff" stop-opacity="0"/></linearGradient><linearGradient id="g"><stop offset="0"/><stop offset="1" stop-color="#fff" stop-opacity="0"/></linearGradient><linearGradient id="h" gradientTransform="matrix(.67836735 0 0 .3294814 -166.72256 -23.929936)" gradientUnits="userSpaceOnUse" x1="92.237503" x2="92.237503" xlink:href="#f" y1="6.079207" y2="24.06794"/><linearGradient id="i" gradientTransform="matrix(.67836735 0 0 .3294814 -166.72256 -.157803)" gradientUnits="userSpaceOnUse" x1="92.237503" x2="92.237503" xlink:href="#g" y1="7.920389" y2="24.06794"/><linearGradient id="j" gradientTransform="matrix(.67836735 0 0 .3294814 -126.72256 -.157803)" gradientUnits="userSpaceOnUse" x1="92.237503" x2="92.237503" xlink:href="#g" y1="7.920389" y2="24.06794"/><linearGradient id="k" gradientTransform="matrix(.67836735 0 0 .3294814 -126.72256 -23.929936)" gradientUnits="userSpaceOnUse" x1="92.237503" x2="92.237503" xlink:href="#f" y1="6.079207" y2="24.06794"/><linearGradient id="l" gradientTransform="matrix(.67836735 0 0 .3294814 -86.72256 -.157803)" gradientUnits="userSpaceOnUse" x1="92.237503" x2="92.237503" xlink:href="#g" y1="7.920389" y2="24.06794"/><linearGradient id="m" gradientTransform="matrix(.67836735 0 0 .3294814 -86.72256 -23.929936)" gradientUnits="userSpaceOnUse" x1="92.237503" x2="92.237503" xlink:href="#f" y1="6.079207" y2="24.06794"/><linearGradient id="n" gradientTransform="matrix(.9792 0 0 .9725 133.0002 20.8762)" gradientUnits="userSpaceOnUse" x1="128" x2="128" y1="74.251083" y2="104"><stop offset="0" stop-color="#72d13d"/><stop offset=".3553" stop-color="#35ac1c"/><stop offset=".6194" stop-color="#0f9508"/><stop offset=".7574" stop-color="#008c00"/><stop offset="1" stop-color="#007a00"/></linearGradient><linearGradient id="o" gradientUnits="userSpaceOnUse" x1="128" x2="128" y1="-77.748917" y2="-48"><stop offset="0" stop-color="#0968ef"/><stop offset="1" stop-color="#aecffc"/></linearGradient><g transform="matrix(.125 0 0 .125 .011058 .000012)"><rect fill="url(#o)" height="39.999996" rx="8.000004" transform="scale(1 -1)" width="32.000004" x="96" y="-72"/><rect fill="url(#n)" height="39.999996" rx="8.000004" width="32.000004" x="96" y="80"/><path d="m23 9 .04082 112h61.131184l34.241996-.10366c.375-.375.586-.884.586-1.414v-110.48234z" filter="url(#b)" opacity=".715069" transform="matrix(1.0416667 0 0 1.0357143 -9.958333 -3.321534)"/><path d="m24.919999 10.931136v108.137934l91.574001.0893c.375-.375.586-.884.586-1.414v-106.813274h-92.160001z" filter="url(#c)" opacity=".89589" transform="matrix(1.0416667 0 0 1.0357143 -9.958333 -3.321534)"/><path d="m23 9.9655172.040816 111.0344828h61.131184l34.242-.10366c.375-.375.586-.884.586-1.414v-109.5168228z" filter="url(#b)" opacity=".835616" transform="matrix(1.0416667 0 0 1.0357143 -9.958333 -3.321534)"/><path d="m16.000002 8v112h61.172l34.241998.086c.375-.375.586-.884.586-1.414v-110.672z" fill="url(#d)"/><path d="m24.678725 16c-.539276 0-.978723.440836-.978723.981818l.3 94.036362c0 .54197.439447.98182.978723.98182l78.734505-.1188c.18303-.1836.28677-.43593.28677-.69414v-94.205242c0-.540982-.43847-.981818-.97872-.981818z" fill="url(#e)"/><path d="m16 8h96v24h-96z" fill="#dadaff" fill-opacity=".387283"/><path d="m-112.30331-.176937h16.303307v24.126005h-16.303307z" fill="#eee" transform="rotate(-90)"/><path d="m-112.30331-.176937h16.303307v7.949071h-16.303307z" fill="url(#i)" opacity=".649718" transform="rotate(-90)"/><path d="m-112.30331-23.94907h16.303307v7.949071h-16.303307z" fill="url(#h)" transform="matrix(0 -1 -1 0 0 0)"/><path d="m-72.303307-.176937h16.303307v24.126005h-16.303307z" fill="#eee" transform="rotate(-90)"/><path d="m-72.303307-.176937h16.303307v7.949071h-16.303307z" fill="url(#j)" opacity=".649718" transform="rotate(-90)"/><path d="m-72.303307-23.94907h16.303307v7.949071h-16.303307z" fill="url(#k)" transform="matrix(0 -1 -1 0 0 0)"/><path d="m-32.303307-.176937h16.303307v24.126005h-16.303307z" fill="#eee" transform="rotate(-90)"/><path d="m-32.303307-.176937h16.303307v7.949071h-16.303307z" fill="url(#l)" opacity=".649718" transform="rotate(-90)"/><path d="m-32.303307-23.94907h16.303307v7.949071h-16.303307z" fill="url(#m)" transform="matrix(0 -1 -1 0 0 0)"/><g transform="translate(7.911534 -12.000093)"><path d="m24 64c-2.209048.000221-3.999779 1.790952-4 4v1.453125 53.091795c.000221 2.20905 1.790952 3.99978 4 4 5.880122 0 10.243404-.13476 16-.13476 2.209048-.00022 3.999779-1.79095 4-4v-6.41016h48v6.41016c.000221 2.20905 1.790952 3.99978 4 4 5.7566 0 10.11988.13476 16 .13476 2.20905-.00022 3.99978-1.79095 4-4v-53.091795-1.453125c-.00022-2.209048-1.79095-3.999779-4-4h-5.81836-10.18164c-2.209048.000221-3.999779 1.790952-4 4v8h-48v-8c-.000221-2.209048-1.790952-3.999779-4-4h-10.181641z" fill="#fff" fill-opacity=".893382" stroke-width="1.868384"/><path d="m24 68v1.453125 53.091805c5.818359 0 10.181641-.13559 16-.13559v-6.40934h-8v-40h8v-8h-10.181641z" fill="#333"/><path d="m112 68v1.453125 53.091805c-5.81836 0-10.18164-.13559-16-.13559v-6.40934h8v-40h-8v-8h10.18164z" fill="#333"/><path d="m40.000002 83.999997h56v24.000003h-56z" fill="url(#a)" stroke-width="1.868384"/></g></g></svg>

<?xml version="1.0" encoding="UTF-8" standalone="no"?>
<svg
   xmlns:dc="http://purl.org/dc/elements/1.1/"
   xmlns:cc="http://creativecommons.org/ns#"
   xmlns:rdf="http://www.w3.org/1999/02/22-rdf-syntax-ns#"
   xmlns:svg="http://www.w3.org/2000/svg"
   xmlns="http://www.w3.org/2000/svg"
   xmlns:xlink="http://www.w3.org/1999/xlink"
   xmlns:sodipodi="http://sodipodi.sourceforge.net/DTD/sodipodi-0.dtd"
   xmlns:inkscape="http://www.inkscape.org/namespaces/inkscape"
   enable-background="new 0 0 128 128"
   height="16"
   viewBox="0 0 16 16"
   width="16"
   version="1.1"
   id="svg131"
   sodipodi:docname="sc_insertauthoritiesentry.svg"
   inkscape:version="0.92.4 (unknown)"
   inkscape:export-filename="/home/rizmut/Dokumen/Rizmut/Github/libreoffice-style-karasa-jaga/build/next/cmd/sc_insertauthoritiesentry.png"
   inkscape:export-xdpi="96"
   inkscape:export-ydpi="96">
  <metadata
     id="metadata137">
    <rdf:RDF>
      <cc:Work
         rdf:about="">
        <dc:format>image/svg+xml</dc:format>
        <dc:type
           rdf:resource="http://purl.org/dc/dcmitype/StillImage" />
        <dc:title></dc:title>
      </cc:Work>
    </rdf:RDF>
  </metadata>
  <defs
     id="defs135">
    <linearGradient
       id="c-3"
       gradientTransform="matrix(1.8,0,0,1.4960829,-206.36154,-67.61099)"
       gradientUnits="userSpaceOnUse"
       x1="154.64529"
       x2="154.44292"
       y1="106.68593"
       y2="130.74823">
      <stop
         offset="0"
         stop-color="#4c78fd"
         id="stop22" />
      <stop
         offset="1"
         stop-color="#85a2fe"
         id="stop24" />
    </linearGradient>
  </defs>
  <sodipodi:namedview
     pagecolor="#ffffff"
     bordercolor="#666666"
     borderopacity="1"
     objecttolerance="10"
     gridtolerance="10"
     guidetolerance="10"
     inkscape:pageopacity="0"
     inkscape:pageshadow="2"
     inkscape:window-width="1366"
     inkscape:window-height="706"
     id="namedview133"
     showgrid="true"
     inkscape:zoom="29.5"
     inkscape:cx="6.1661555"
     inkscape:cy="5.5207474"
     inkscape:window-x="0"
     inkscape:window-y="0"
     inkscape:window-maximized="1"
     inkscape:current-layer="g129">
    <inkscape:grid
       type="xygrid"
       id="grid176" />
  </sodipodi:namedview>
  <filter
     id="a">
    <feGaussianBlur
       stdDeviation="1.0394514"
       id="feGaussianBlur2" />
  </filter>
  <linearGradient
     id="b">
    <stop
       offset="0"
       stop-color="#0968ef"
       id="stop5" />
    <stop
       offset="1"
       stop-color="#aecffc"
       id="stop7" />
  </linearGradient>
  <filter
     id="c">
    <feGaussianBlur
       stdDeviation=".50063244"
       id="feGaussianBlur10" />
  </filter>
  <radialGradient
     id="d"
     cx="153.327992"
     cy="156.18817"
     gradientUnits="userSpaceOnUse"
     r="139.5585">
    <stop
       offset="0"
       stop-color="#00537d"
       id="stop13" />
    <stop
       offset=".0151"
       stop-color="#186389"
       id="stop15" />
    <stop
       offset=".0558"
       stop-color="#558ca8"
       id="stop17" />
    <stop
       offset=".0964"
       stop-color="#89afc3"
       id="stop19" />
    <stop
       offset=".1357"
       stop-color="#b3ccd8"
       id="stop21" />
    <stop
       offset=".1737"
       stop-color="#d4e2e9"
       id="stop23" />
    <stop
       offset=".2099"
       stop-color="#ecf2f5"
       id="stop25" />
    <stop
       offset=".2435"
       stop-color="#fafcfd"
       id="stop27" />
    <stop
       offset=".2722"
       stop-color="#fff"
       id="stop29" />
  </radialGradient>
  <radialGradient
     id="e"
     cx="125.30434"
     cy="133.25926"
     gradientTransform="matrix(.9787234 0 0 .9818182 1.361705 1.163636)"
     gradientUnits="userSpaceOnUse"
     r="139.55859">
    <stop
       offset="0"
       stop-color="#e3e4e4"
       id="stop32" />
    <stop
       offset=".11366145"
       stop-color="#ececed"
       id="stop34" />
    <stop
       offset=".20296688"
       stop-color="#ececec"
       id="stop36" />
    <stop
       offset=".2363"
       stop-color="#fafafa"
       id="stop38" />
    <stop
       offset=".2722"
       stop-color="#fff"
       id="stop40" />
    <stop
       offset=".5313"
       stop-color="#fafafa"
       id="stop42" />
    <stop
       offset=".8449"
       stop-color="#ebecec"
       id="stop44" />
    <stop
       offset="1"
       stop-color="#e1e2e3"
       id="stop46" />
  </radialGradient>
  <linearGradient
     id="f">
    <stop
       offset="0"
       stop-color="#262626"
       id="stop49" />
    <stop
       offset="1"
       stop-color="#fff"
       stop-opacity="0"
       id="stop51" />
  </linearGradient>
  <linearGradient
     id="g">
    <stop
       offset="0"
       id="stop54" />
    <stop
       offset="1"
       stop-color="#fff"
       stop-opacity="0"
       id="stop56" />
  </linearGradient>
  <linearGradient
     id="h"
     gradientTransform="matrix(.67836735 0 0 .3294814 -166.72256 -23.929936)"
     gradientUnits="userSpaceOnUse"
     x1="92.237503"
     x2="92.237503"
     xlink:href="#f"
     y1="6.079207"
     y2="24.06794" />
  <linearGradient
     id="i"
     gradientTransform="matrix(.67836735 0 0 .3294814 -166.72256 -.157803)"
     gradientUnits="userSpaceOnUse"
     x1="92.237503"
     x2="92.237503"
     xlink:href="#g"
     y1="7.920389"
     y2="24.06794" />
  <linearGradient
     id="j"
     gradientTransform="matrix(.67836735 0 0 .3294814 -126.72256 -.157803)"
     gradientUnits="userSpaceOnUse"
     x1="92.237503"
     x2="92.237503"
     xlink:href="#g"
     y1="7.920389"
     y2="24.06794" />
  <linearGradient
     id="k"
     gradientTransform="matrix(.67836735 0 0 .3294814 -126.72256 -23.929936)"
     gradientUnits="userSpaceOnUse"
     x1="92.237503"
     x2="92.237503"
     xlink:href="#f"
     y1="6.079207"
     y2="24.06794" />
  <linearGradient
     id="l"
     gradientTransform="matrix(.67836735 0 0 .3294814 -86.72256 -.157803)"
     gradientUnits="userSpaceOnUse"
     x1="92.237503"
     x2="92.237503"
     xlink:href="#g"
     y1="7.920389"
     y2="24.06794" />
  <linearGradient
     id="m"
     gradientTransform="matrix(.67836735 0 0 .3294814 -86.72256 -23.929936)"
     gradientUnits="userSpaceOnUse"
     x1="92.237503"
     x2="92.237503"
     xlink:href="#f"
     y1="6.079207"
     y2="24.06794" />
  <linearGradient
     id="n"
     gradientTransform="matrix(.9792 0 0 .9725 133.0002 20.8762)"
     gradientUnits="userSpaceOnUse"
     x1="128"
     x2="128"
     y1="74.251083"
     y2="104">
    <stop
       offset="0"
       stop-color="#72d13d"
       id="stop65" />
    <stop
       offset=".3553"
       stop-color="#35ac1c"
       id="stop67" />
    <stop
       offset=".6194"
       stop-color="#0f9508"
       id="stop69" />
    <stop
       offset=".7574"
       stop-color="#008c00"
       id="stop71" />
    <stop
       offset="1"
       stop-color="#007a00"
       id="stop73" />
  </linearGradient>
  <linearGradient
     id="o"
     gradientUnits="userSpaceOnUse"
     x1="128"
     x2="128"
     xlink:href="#b"
     y1="-77.748917"
     y2="-48" />
  <linearGradient
     id="p"
     gradientTransform="matrix(1.125 0 0 1 -13 0)"
     gradientUnits="userSpaceOnUse"
     x1="40"
     x2="64"
     xlink:href="#b"
     y1="106"
     y2="106" />
  <linearGradient
     id="q"
     gradientTransform="matrix(1.125 0 0 1 -13 0)"
     gradientUnits="userSpaceOnUse"
     x1="40"
     x2="88"
     xlink:href="#b"
     y1="74"
     y2="74" />
  <linearGradient
     id="r"
     gradientTransform="matrix(1.125 0 0 1 -13 0)"
     gradientUnits="userSpaceOnUse"
     x1="40"
     x2="104"
     xlink:href="#b"
     y1="90"
     y2="90" />
  <linearGradient
     id="s"
     gradientTransform="matrix(1.125 0 0 1 -13 0)"
     gradientUnits="userSpaceOnUse"
     x1="40"
     x2="64"
     xlink:href="#b"
     y1="50"
     y2="50" />
  <linearGradient
     id="t"
     gradientTransform="matrix(1.125 0 0 1 -13 0)"
     gradientUnits="userSpaceOnUse"
     x1="40"
     x2="100"
     xlink:href="#b"
     y1="22"
     y2="22" />
  <linearGradient
     id="u"
     gradientTransform="matrix(1.125 0 0 1 -13 0)"
     gradientUnits="userSpaceOnUse"
     x1="40"
     x2="92"
     xlink:href="#b"
     y1="38"
     y2="38" />
  <g
     transform="matrix(.125 0 0 .125 .011058 .000012)"
     id="g129">
    <rect
       fill="url(#o)"
       height="39.999996"
       rx="8.000004"
       transform="scale(1 -1)"
       width="32.000004"
       x="96"
       y="-72"
       id="rect83" />
    <rect
       fill="url(#n)"
       height="39.999996"
       rx="8.000004"
       width="32.000004"
       x="96"
       y="80"
       id="rect85" />
    <path
       d="m23 9 .04082 112h61.131184l34.241996-.10366c.375-.375.586-.884.586-1.414v-110.48234z"
       filter="url(#a)"
       opacity=".715069"
       transform="matrix(1.0416667 0 0 1.0357143 -9.958333 -3.321534)"
       id="path87" />
    <path
       d="m24.919999 10.931136v108.137934l91.574001.0893c.375-.375.586-.884.586-1.414v-106.813274h-92.160001z"
       filter="url(#c)"
       opacity=".89589"
       transform="matrix(1.0416667 0 0 1.0357143 -9.958333 -3.321534)"
       id="path89" />
    <path
       d="m23 9.9655172.040816 111.0344828h61.131184l34.242-.10366c.375-.375.586-.884.586-1.414v-109.5168228z"
       filter="url(#a)"
       opacity=".835616"
       transform="matrix(1.0416667 0 0 1.0357143 -9.958333 -3.321534)"
       id="path91" />
    <path
       d="m16.000002 8v112h61.172l34.241998.086c.375-.375.586-.884.586-1.414v-110.672z"
       fill="url(#d)"
       id="path93" />
    <path
       d="m24.678725 16c-.539276 0-.978723.440836-.978723.981818l.3 94.036362c0 .54197.439447.98182.978723.98182l78.734505-.1188c.18303-.1836.28677-.43593.28677-.69414v-94.205242c0-.540982-.43847-.981818-.97872-.981818z"
       fill="url(#e)"
       id="path95" />
    <path
       d="m16 8h96v24h-96z"
       fill="#dadaff"
       fill-opacity=".387283"
       id="path97" />
    <path
       d="m-112.30331-.176937h16.303307v24.126005h-16.303307z"
       fill="#eee"
       transform="rotate(-90)"
       id="path105" />
    <path
       d="m-112.30331-.176937h16.303307v7.949071h-16.303307z"
       fill="url(#i)"
       opacity=".649718"
       transform="rotate(-90)"
       id="path107" />
    <path
       d="m-112.30331-23.94907h16.303307v7.949071h-16.303307z"
       fill="url(#h)"
       transform="matrix(0 -1 -1 0 0 0)"
       id="path109" />
    <path
       d="m-72.303307-.176937h16.303307v24.126005h-16.303307z"
       fill="#eee"
       transform="rotate(-90)"
       id="path111" />
    <path
       d="m-72.303307-.176937h16.303307v7.949071h-16.303307z"
       fill="url(#j)"
       opacity=".649718"
       transform="rotate(-90)"
       id="path113" />
    <path
       d="m-72.303307-23.94907h16.303307v7.949071h-16.303307z"
       fill="url(#k)"
       transform="matrix(0 -1 -1 0 0 0)"
       id="path115" />
    <path
       d="m-32.303307-.176937h16.303307v24.126005h-16.303307z"
       fill="#eee"
       transform="rotate(-90)"
       id="path117" />
    <path
       d="m-32.303307-.176937h16.303307v7.949071h-16.303307z"
       fill="url(#l)"
       opacity=".649718"
       transform="rotate(-90)"
       id="path119" />
    <path
       d="m-32.303307-23.94907h16.303307v7.949071h-16.303307z"
       fill="url(#m)"
       transform="matrix(0 -1 -1 0 0 0)"
       id="path121" />
    <g
       transform="translate(7.9115344,-12.000093)"
       id="g65">
      <path
         style="fill:#ffffff;fill-opacity:0.89338199;stroke-width:1.868384"
         inkscape:connector-curvature="0"
         d="m 24,64 c -2.209048,2.21e-4 -3.999779,1.790952 -4,4 v 1.453125 53.091795 c 2.21e-4,2.20905 1.790952,3.99978 4,4 5.880122,0 10.243404,-0.13476 16,-0.13476 2.209048,-2.2e-4 3.999779,-1.79095 4,-4 V 116 h 48 v 6.41016 c 2.21e-4,2.20905 1.790952,3.99978 4,4 5.7566,0 10.11988,0.13476 16,0.13476 2.20905,-2.2e-4 3.99978,-1.79095 4,-4 V 69.453125 68 c -2.2e-4,-2.209048 -1.79095,-3.999779 -4,-4 H 106.18164 96 c -2.209048,2.21e-4 -3.999779,1.790952 -4,4 v 8 H 44 v -8 c -2.21e-4,-2.209048 -1.790952,-3.999779 -4,-4 H 29.818359 Z"
         id="path57"
         sodipodi:nodetypes="ccccccccccccccccccccccccc" />
      <path
         style="fill:#333333"
         inkscape:connector-curvature="0"
         d="m 24,68 v 1.453125 53.091805 c 5.818359,0 10.181641,-0.13559 16,-0.13559 V 116 H 32 V 76 h 8 V 68 H 29.818359 Z"
         id="path59" />
      <path
         style="fill:#333333"
         inkscape:connector-curvature="0"
         d="m 112,68 v 1.453125 53.091805 c -5.81836,0 -10.18164,-0.13559 -16,-0.13559 V 116 h 8 V 76 h -8 v -8 h 10.18164 z"
         id="path61" />
      <path
         style="fill:url(#c-3);stroke-width:1.868384"
         inkscape:connector-curvature="0"
         d="m 40.000002,83.999997 h 56 V 108 h -56 z"
         id="path63"
         sodipodi:nodetypes="ccccc" />
    </g>
  </g>
</svg>
